build/documents/DocSettingsSolid.svg

<svg xmlns="http://www.w3.org/2000/svg" fill="none" viewBox="0 0 24 24" focusable="false"><path d="M0 0H24V24H0z"/><path fill="#74767B" fill-rule="evenodd" d="M20.0001 6C20.0001 4.34315 18.6569 3 17.0001 3L7.00684 3C5.34998 3 4.00684 4.34315 4.00684 6L4.00684 18C4.00684 19.6569 5.34998 21 7.00684 21L17.0001 21C18.6569 21 20.0001 19.6569 20.0001 18L20.0001 6ZM12.6535 7.21397C12.6535 6.85498 12.3625 6.56396 12.0035 6.56396C11.6445 6.56396 11.3535 6.85498 11.3535 7.21397L11.3535 8.11124C10.7343 8.20838 10.1622 8.44735 9.67141 8.79384L9.047 8.16943C8.79316 7.91559 8.3816 7.91559 8.12776 8.16943C7.87392 8.42327 7.87392 8.83483 8.12776 9.08867L8.74432 9.70522C8.38529 10.1957 8.13512 10.7709 8.02937 11.3953L7.17231 11.3953C6.81332 11.3953 6.52231 11.6863 6.52231 12.0453C6.52231 12.4042 6.81332 12.6953 7.17231 12.6953L8.02156 12.6953C8.12058 13.3263 8.36688 13.9084 8.72419 14.4054L8.12776 15.0019C7.87392 15.2557 7.87392 15.6673 8.12776 15.9211C8.3816 16.1749 8.79316 16.1749 9.047 15.9211L9.64345 15.3246C10.1404 15.6819 10.7225 15.9282 11.3535 16.0272L11.3535 16.8764C11.3535 17.2354 11.6445 17.5264 12.0035 17.5264C12.3625 17.5264 12.6535 17.2354 12.6535 16.8764L12.6535 16.0193C13.2778 15.9136 13.853 15.6634 14.3435 15.3044L14.9601 15.921C15.214 16.1749 15.6255 16.1749 15.8794 15.921C16.1332 15.6672 16.1332 15.2556 15.8794 15.0018L15.2549 14.3773C15.6014 13.8865 15.8403 13.3144 15.9375 12.6953L16.8347 12.6953C17.1937 12.6953 17.4847 12.4042 17.4847 12.0453C17.4847 11.6863 17.1937 11.3953 16.8347 11.3953L15.9297 11.3953C15.8259 10.7827 15.5831 10.2175 15.235 9.73314L15.8794 9.08875C16.1332 8.8349 16.1332 8.42335 15.8794 8.16951C15.6255 7.91567 15.214 7.91567 14.9601 8.16951L14.3157 8.81388C13.8314 8.46564 13.2661 8.22284 12.6535 8.11907L12.6535 7.21397ZM14.6861 12.0692C14.6861 13.564 13.4743 14.7758 11.9795 14.7758C10.4847 14.7758 9.27293 13.564 9.27293 12.0692C9.27293 10.5744 10.4847 9.36262 11.9795 9.36262C13.4743 9.36262 14.6861 10.5744 14.6861 12.0692ZM12.017 13.1067C12.5693 13.1067 13.017 12.659 13.017 12.1067C13.017 11.5544 12.5693 11.1067 12.017 11.1067C11.4647 11.1067 11.017 11.5544 11.017 12.1067C11.017 12.659 11.4647 13.1067 12.017 13.1067Z"/></svg>

<svg xmlns="http://www.w3.org/2000/svg" fill="none" viewBox="0 0 24 24" focusable="false"><path fill="#74767B" fill-rule="evenodd" d="M20 6c0-1.66-1.35-3-3-3H7C5.35 3 4 4.34 4 6v12c0 1.65 1.35 3 3 3h10c1.65 0 3-1.35 3-3zm-7.35 1.21c0-.36-.29-.65-.65-.65s-.65.29-.65.65v.9c-.62.09-1.19.33-1.68.68l-.63-.63a.66.66 0 0 0-.92 0c-.25.26-.25.67 0 .92l.62.62c-.36.49-.61 1.07-.72 1.69h-.85c-.36 0-.65.29-.65.65s.29.65.65.65h.85c.1.63.34 1.21.7 1.71l-.6.6c-.25.25-.25.66 0 .92.26.25.67.25.92 0l.6-.6c.5.36 1.08.6 1.71.7v.85c0 .36.29.65.65.65s.65-.29.65-.65v-.86c.62-.1 1.2-.35 1.69-.71l.62.62c.25.25.66.25.91 0a.64.64 0 0 0 0-.92l-.62-.63c.35-.49.59-1.06.68-1.68h.9c.36 0 .65-.29.65-.65s-.29-.65-.65-.65h-.91a3.9 3.9 0 0 0-.69-1.66l.64-.65a.64.64 0 0 0 0-.92.646.646 0 0 0-.91 0l-.65.65c-.48-.35-1.05-.59-1.66-.7zm-.68 7.56a2.706 2.706 0 1 0 .008-5.412 2.706 2.706 0 0 0-.008 5.412m1.04-2.67c0 .55-.45 1-1 1s-1-.45-1-1 .45-1 1-1 1 .45 1 1"/></svg>
